X:15
T:Faubourg Reel
M:4/4
K:G
b3b bagf|ggg3dBd|gdBd gBdg|fedB e4|a3b a2g2|1f3g f2ed|f2ed fedf|ed^ce d4
:|2f3gf2e2|d2d2e2f2|g6||AG|FAdfa2FF|FAdfa2AA|A^cef ge^cA|AB^cA (3B^cB AG
|FAdfa2FF|FAdfa2AA|A^cef ge^ce|dfe^cd2:||
